X: 33061
T: Priest In His Boots, The
R: jig
M: 6/8
K: Dmixolydian
AGA DFA|dBG AFD|~G3 BAB|cBc AFG|
~A3 DFA|dBG AFD|~G3 Add|^cAF G3:|
|:ded c2d|c/B/AG AFD|~G3 BAB|cBc ABc|
ded cdc|BAG AFD|~G3 Add|^cAF G3:|

